X:5098
T:Slemish
M:6/8
R:Jig
L:1/8
Q:180
C:Aidan Crossey
K:D
|:fAA fAA|efe dBA|fAA fAA|efe dcd|
e2a agf|g2g gfe|fed cBc|1 d3 d2e:||
2 d3 BAG|
|:FAA FAA|EDD EDD|FAA FAA|efe dcd|
e2a agf|g2g gfe|fed cBc|1 d3 BAG:||
2 d3 d2e|
